teeny/outline/briefcase.svg

<svg width="15" height="15" viewBox="0 0 15 15" fill="none" xmlns="http://www.w3.org/2000/svg">
<path d="M5.5 3V2.5C5.5 1.39543 6.39543 0.5 7.5 0.5C8.60457 0.5 9.5 1.39543 9.5 2.5V3M0.5 11.5H14.5M1.5 3.5H13.5C14.0523 3.5 14.5 3.94772 14.5 4.5V13.5C14.5 14.0523 14.0523 14.5 13.5 14.5H1.5C0.947716 14.5 0.5 14.0523 0.5 13.5V4.5C0.5 3.94772 0.947715 3.5 1.5 3.5Z" stroke="black"/>
</svg>

<svg viewBox="0 0 15 15" xmlns="http://www.w3.org/2000/svg"><path fill="none" stroke="#000" d="M5.5 3v-.5c0-1.11.89-2 2-2 1.1 0 2 .89 2 2V3m-9 8.5h14m-13-8h12c.55 0 1 .44 1 1v9c0 .55-.45 1-1 1h-12c-.56 0-1-.45-1-1v-9c0-.56.44-1 1-1Z"/></svg>
